X:2
T:The Burnt Old Man
M:6/8
L:1/8
O:Trad. (13.3.2014/NS)
R:jig
K:Dmaj
|:"D"DFB AFD|~F3 F2E|DFB AFD|"A"E2E GFE|
"D"DFB AFD|F2A d2e|"G"fed B2B|"D"AFD "A"E3:|
|:"D"~d3 def|ABA AFA|"Em"~e3 ede|fed B2A|
"D/F#"~d3 def|ABA d2e|"G"fed B2B|"D"AFD "A"E3:|
